packages/foundations/assets/icons/functional/images/transportation/scooter_28.svg

<svg width="28" height="28" viewBox="0 0 28 28" fill="none" xmlns="http://www.w3.org/2000/svg">
<g clip-path="url(#clip0_187_932)">
<path fill-rule="evenodd" clip-rule="evenodd" d="M22.75 15.3125C24.6831 15.3125 26.25 16.8794 26.25 18.8125C26.25 20.7456 24.6831 22.3125 22.75 22.3125C20.8169 22.3125 19.25 20.7456 19.25 18.8125C19.25 16.8794 20.8169 15.3125 22.75 15.3125ZM10.5 18.8125C10.5 20.7471 8.93312 22.3125 7 22.3125C5.12546 22.3125 3.5 20.7791 3.5 18.8125C3.21582 18.8125 2.92415 18.8125 2.625 18.8125C2.17627 18.8125 1.80643 18.4747 1.75589 18.0395L1.75 16.1875C1.75 13.835 3.60713 11.9159 5.93523 11.8165L10.3731 11.8125L9.84813 10.0625H6.125C5.62638 10.0625 5.25 9.63623 5.25 9.1875C5.25 8.73877 5.6124 8.3125 6.125 8.3125H9.849C10.5736 8.3125 11.2186 8.75902 11.4779 9.42409L13.7743 17.0625H16.2216L21 11.4879V8.3125C21 7.86423 20.6671 7.44339 20.125 7.44339C19.7636 7.44339 18.8886 7.44143 17.5 7.4375C17.0168 7.4375 16.625 7.04575 16.625 6.5625C16.625 6.11377 16.9915 5.6875 17.5 5.6875H20.125C21.5225 5.6875 22.6657 6.78077 22.7455 8.15831L22.75 11.8125C22.75 11.9796 22.7022 12.1423 22.6135 12.2819L17.2893 18.5069C17.1469 18.6732 16.9534 18.8125 16.625 18.8125C16.406 18.8125 14.3644 18.8125 10.5 18.8125ZM22.75 17.0625C21.7834 17.0625 21 17.8459 21 18.8125C21 19.7791 21.7834 20.5625 22.75 20.5625C23.7166 20.5625 24.5 19.7791 24.5 18.8125C24.5 17.8459 23.7166 17.0625 22.75 17.0625ZM5.25478 18.8125C5.25 19.8374 6.07731 20.5625 7 20.5625C7.92269 20.5625 8.7452 19.8374 8.7452 18.8125H5.25478ZM10.8876 13.5625H6.125C4.72715 13.5625 3.58431 14.6554 3.50446 16.0333L3.5 17.0625H11.9455L10.8876 13.5625Z" fill="#1A1C1F"/>
</g>
<defs>
<clipPath id="clip0_187_932">
<rect width="28" height="28" fill="white"/>
</clipPath>
</defs>
</svg>

<svg xmlns="http://www.w3.org/2000/svg" width="28" height="28" fill="none"><g clip-path="url(#a)"><path fill="#1A1C1F" fill-rule="evenodd" d="M22.75 15.313a3.5 3.5 0 1 1 0 7 3.5 3.5 0 0 1 0-7m-12.25 3.5c0 1.934-1.567 3.5-3.5 3.5-1.875 0-3.5-1.534-3.5-3.5h-.875a.875.875 0 0 1-.87-.773l-.005-1.852a4.375 4.375 0 0 1 4.185-4.371l4.438-.005-.525-1.75H6.125a.887.887 0 0 1-.875-.874c0-.45.362-.876.875-.876h3.724c.725 0 1.37.447 1.629 1.112l2.296 7.639h2.448L21 11.488V8.313a.855.855 0 0 0-.875-.87L17.5 7.438a.875.875 0 0 1 0-1.75h2.625a2.626 2.626 0 0 1 2.62 2.47l.005 3.655c0 .167-.048.33-.137.469l-5.324 6.225a.82.82 0 0 1-.664.305zm12.25-1.75a1.75 1.75 0 1 0 0 3.5 1.75 1.75 0 0 0 0-3.5m-17.495 1.75A1.733 1.733 0 0 0 7 20.563c.923 0 1.745-.726 1.745-1.75zm5.633-5.25H6.125a2.625 2.625 0 0 0-2.62 2.47l-.005 1.03h8.446z" clip-rule="evenodd"/></g><defs><clipPath id="a"><path fill="#fff" d="M0 0h28v28H0z"/></clipPath></defs></svg>
